; generated by Slic3r 0.7.2b on 2012-11-23 at 13:09:43

; layer_height = .3
; perimeters = 3
; solid_layers = 3
; fill_density = 0
; nozzle_diameter = 0.5
; filament_diameter = 2.8
; extrusion_multiplier = 1
; perimeter_speed = 50
; infill_speed = 60
; travel_speed = 130
; extrusion_width_ratio = 0
; scale = 1
; single wall width = 0.70mm

M190 S55 ; set bed temperature
M104 S185 ; set temperature
G28 ; home all axes
M109 S185 ; wait for temperature to be reached
G90 ; use absolute coordinates
G21 ; set units to millimeters
G92 E0 ; reset extrusion distance
M82 ; use absolute distances for extrusion
G1 Z0.300 F7800.000
G1 X86.730 Y87.460
G1 F1800.000 E1.00000
G1 X87.460 Y86.730 F900.000 E1.03292
G1 X88.850 Y85.540 E1.09127
G1 X89.680 Y84.930 E1.12411
G1 X91.240 Y83.970 E1.18252
G1 X92.160 Y83.500 E1.21547
G1 X93.840 Y82.800 E1.27350
G1 X94.870 Y82.470 E1.30799
G1 X96.650 Y82.050 E1.36631
G1 X97.630 Y81.890 E1.39797
G1 X99.450 Y81.740 E1.45621
G1 X100.530 Y81.740 E1.49065
G1 X102.360 Y81.890 E1.54920
G1 X103.340 Y82.050 E1.58086
G1 X105.120 Y82.470 E1.63918
G1 X106.150 Y82.800 E1.67367
G1 X107.830 Y83.500 E1.73170
G1 X108.750 Y83.970 E1.76465
G1 X110.310 Y84.930 E1.82306
G1 X111.140 Y85.540 E1.85590
G1 X112.530 Y86.730 E1.91425
G1 X113.260 Y87.460 E1.94717
G1 X114.450 Y88.850 E2.00552
G1 X115.060 Y89.680 E2.03837
G1 X116.020 Y91.240 E2.09677
G1 X116.490 Y92.160 E2.12972
G1 X117.190 Y93.840 E2.18775
G1 X117.520 Y94.870 E2.22224
G1 X117.940 Y96.650 E2.28056
G1 X118.100 Y97.630 E2.31223
G1 X118.250 Y99.460 E2.37078
G1 X118.250 Y100.540 E2.40521
G1 X118.100 Y102.360 E2.46345
G1 X117.940 Y103.340 E2.49511
G1 X117.520 Y105.120 E2.55343
G1 X117.190 Y106.150 E2.58792
G1 X116.490 Y107.830 E2.64595
G1 X116.020 Y108.750 E2.67890
G1 X115.060 Y110.310 E2.73731
G1 X114.450 Y111.140 E2.77015
G1 X113.260 Y112.530 E2.82850
G1 X112.530 Y113.260 E2.86142
G1 X111.140 Y114.450 E2.91977
G1 X110.310 Y115.060 E2.95262
G1 X108.750 Y116.020 E3.01103
G1 X107.830 Y116.490 E3.04397
G1 X106.150 Y117.190 E3.10200
G1 X105.120 Y117.520 E3.13649
G1 X103.340 Y117.940 E3.19481
G1 X102.360 Y118.100 E3.22648
G1 X100.540 Y118.250 E3.28471
G1 X99.460 Y118.250 E3.31915
G1 X97.630 Y118.100 E3.37770
G1 X96.650 Y117.940 E3.40936
G1 X94.870 Y117.520 E3.46768
G1 X93.840 Y117.190 E3.50217
G1 X92.160 Y116.490 E3.56020
G1 X91.240 Y116.020 E3.59315
G1 X89.680 Y115.060 E3.65156
G1 X88.850 Y114.450 E3.68440
G1 X87.460 Y113.260 E3.74275
G1 X86.730 Y112.530 E3.77567
G1 X85.540 Y111.140 E3.83402
G1 X84.930 Y110.310 E3.86687
G1 X83.970 Y108.750 E3.92528
G1 X83.500 Y107.830 E3.95822
G1 X82.800 Y106.150 E4.01625
G1 X82.470 Y105.120 E4.05074
G1 X82.050 Y103.340 E4.10906
G1 X81.890 Y102.360 E4.14073
G1 X81.740 Y100.540 E4.19896
G1 X81.740 Y99.460 E4.23340
G1 X81.890 Y97.630 E4.29195
G1 X82.050 Y96.650 E4.32361
G1 X82.470 Y94.870 E4.38193
G1 X82.800 Y93.840 E4.41642
G1 X83.500 Y92.160 E4.47446
G1 X83.970 Y91.240 E4.50740
G1 X84.930 Y89.680 E4.56581
G1 X85.540 Y88.850 E4.59865
G1 X86.662 Y87.539 E4.65367
G1 X87.200 Y87.860 F7800.000
G1 X87.860 Y87.200 F900.000 E4.68343
G1 X89.250 Y86.010 E4.74178
G1 X90.010 Y85.460 E4.77170
G1 X91.570 Y84.500 E4.83011
G1 X92.400 Y84.070 E4.85991
G1 X94.080 Y83.370 E4.91795
G1 X95.010 Y83.070 E4.94911
G1 X96.790 Y82.650 E5.00743
G1 X97.680 Y82.510 E5.03616
G1 X99.500 Y82.360 E5.09439
G1 X100.480 Y82.360 E5.12564
G1 X102.310 Y82.510 E5.18419
G1 X103.200 Y82.650 E5.21292
G1 X104.980 Y83.070 E5.27124
G1 X105.910 Y83.370 E5.30240
G1 X107.590 Y84.070 E5.36044
G1 X108.420 Y84.500 E5.39024
G1 X109.980 Y85.460 E5.44865
G1 X110.740 Y86.010 E5.47857
G1 X112.130 Y87.200 E5.53692
G1 X112.790 Y87.860 E5.56668
G1 X113.980 Y89.250 E5.62503
G1 X114.530 Y90.010 E5.65494
G1 X115.490 Y91.570 E5.71335
G1 X115.920 Y92.400 E5.74316
G1 X116.620 Y94.080 E5.80120
G1 X116.920 Y95.010 E5.83236
G1 X117.340 Y96.790 E5.89068
G1 X117.480 Y97.680 E5.91940
G1 X117.630 Y99.510 E5.97795
G1 X117.630 Y100.490 E6.00920
G1 X117.480 Y102.310 E6.06744
G1 X117.340 Y103.200 E6.09617
G1 X116.920 Y104.980 E6.15448
G1 X116.620 Y105.910 E6.18565
G1 X115.920 Y107.590 E6.24368
G1 X115.490 Y108.420 E6.27349
G1 X114.530 Y109.980 E6.33190
G1 X113.980 Y110.740 E6.36181
G1 X112.790 Y112.130 E6.42016
G1 X112.130 Y112.790 E6.44993
G1 X110.740 Y113.980 E6.50827
G1 X109.980 Y114.530 E6.53819
G1 X108.420 Y115.490 E6.59660
G1 X107.590 Y115.920 E6.62641
G1 X105.910 Y116.620 E6.68444
G1 X104.980 Y116.920 E6.71560
G1 X103.200 Y117.340 E6.77392
G1 X102.310 Y117.480 E6.80265
G1 X100.490 Y117.630 E6.86088
G1 X99.510 Y117.630 E6.89213
G1 X97.680 Y117.480 E6.95068
G1 X96.790 Y117.340 E6.97941
G1 X95.010 Y116.920 E7.03773
G1 X94.080 Y116.620 E7.06889
G1 X92.400 Y115.920 E7.12693
G1 X91.570 Y115.490 E7.15673
G1 X90.010 Y114.530 E7.21514
G1 X89.250 Y113.980 E7.24506
G1 X87.860 Y112.790 E7.30341
G1 X87.200 Y112.130 E7.33317
G1 X86.010 Y110.740 E7.39152
G1 X85.460 Y109.980 E7.42143
G1 X84.500 Y108.420 E7.47984
G1 X84.070 Y107.590 E7.50965
G1 X83.370 Y105.910 E7.56769
G1 X83.070 Y104.980 E7.59885
G1 X82.650 Y103.200 E7.65717
G1 X82.510 Y102.310 E7.68590
G1 X82.360 Y100.490 E7.74413
G1 X82.360 Y99.510 E7.77538
G1 X82.510 Y97.680 E7.83393
G1 X82.650 Y96.790 E7.86266
G1 X83.070 Y95.010 E7.92098
G1 X83.370 Y94.080 E7.95214
G1 X84.070 Y92.400 E8.01017
G1 X84.500 Y91.570 E8.03998
G1 X85.460 Y90.010 E8.09839
G1 X86.010 Y89.250 E8.12831
G1 X87.132 Y87.939 E8.18332
G1 F1800.000 E7.18332
G92 E0
G1 X92.771 Y93.684 F7800.000
G1 F1800.000 E1.00000
G1 X94.015 Y92.495 F900.000 E1.05488
G1 X95.451 Y91.547 E1.10976
G1 X97.034 Y90.870 E1.16464
G1 X98.711 Y90.487 E1.21952
G1 X100.431 Y90.410 E1.27440
G1 X102.136 Y90.641 E1.32928
G1 X103.773 Y91.173 E1.38416
G1 X105.288 Y91.988 E1.43904
G1 X106.634 Y93.061 E1.49392
G1 X107.766 Y94.357 E1.54880
G1 X108.649 Y95.835 E1.60368
G1 X109.254 Y97.446 E1.65856
G1 X109.561 Y99.139 E1.71344
G1 X109.561 Y100.861 E1.76832
G1 X109.254 Y102.554 E1.82320
G1 X108.649 Y104.165 E1.87808
G1 X107.766 Y105.643 E1.93296
G1 X106.634 Y106.939 E1.98784
G1 X105.288 Y108.012 E2.04272
G1 X103.773 Y108.827 E2.09760
G1 X102.136 Y109.359 E2.15248
G1 X100.431 Y109.590 E2.20736
G1 X98.711 Y109.513 E2.26224
G1 X97.034 Y109.130 E2.31712
G1 X95.451 Y108.454 E2.37200
G1 X94.015 Y107.505 E2.42688
G1 X92.771 Y106.316 E2.48176
G1 X91.759 Y104.924 E2.53664
G1 X91.012 Y103.373 E2.59152
G1 X90.555 Y101.714 E2.64640
G1 X90.400 Y100.000 E2.70128
G1 X90.555 Y98.286 E2.75616
G1 X91.012 Y96.627 E2.81104
G1 X91.759 Y95.076 E2.86592
G1 X92.709 Y93.769 E2.91746
G1 X92.302 Y93.275 F7800.000
G1 X93.627 Y92.008 F900.000 E2.97590
G1 X95.156 Y90.999 E3.03433
G1 X96.841 Y90.279 E3.09277
G1 X98.628 Y89.871 E3.15121
G1 X100.459 Y89.789 E3.20964
G1 X102.275 Y90.035 E3.26808
G1 X104.017 Y90.601 E3.32651
G1 X105.631 Y91.469 E3.38495
G1 X107.064 Y92.612 E3.44338
G1 X108.270 Y93.992 E3.50182
G1 X109.209 Y95.565 E3.56026
G1 X109.853 Y97.281 E3.61869
G1 X110.181 Y99.084 E3.67713
G1 X110.181 Y100.916 E3.73556
G1 X109.853 Y102.719 E3.79400
G1 X109.209 Y104.435 E3.85243
G1 X108.270 Y106.008 E3.91087
G1 X107.064 Y107.388 E3.96931
G1 X105.631 Y108.531 E4.02774
G1 X104.017 Y109.399 E4.08618
G1 X102.275 Y109.965 E4.14461
G1 X100.459 Y110.211 E4.20305
G1 X98.628 Y110.129 E4.26148
G1 X96.841 Y109.721 E4.31992
G1 X95.156 Y109.001 E4.37835
G1 X93.627 Y107.992 E4.43679
G1 X92.302 Y106.725 E4.49522
G1 X91.225 Y105.243 E4.55366
G1 X90.430 Y103.592 E4.61210
G1 X89.943 Y101.825 E4.67053
G1 X89.778 Y100.000 E4.72897
G1 X89.943 Y98.175 E4.78740
G1 X90.430 Y96.408 E4.84584
G1 X91.225 Y94.757 E4.90427
G1 X92.241 Y93.359 E4.95938
G1 X92.201 Y92.201 F7800.000
G1 X93.517 Y91.077 F900.000 E5.01456
G1 X94.993 Y90.173 E5.06975
G1 X96.592 Y89.511 E5.12494
G1 X98.275 Y89.107 E5.18013
G1 X100.000 Y88.971 E5.23531
G1 X101.725 Y89.107 E5.29050
G1 X103.408 Y89.511 E5.34569
G1 X105.007 Y90.173 E5.40088
G1 X106.483 Y91.077 E5.45606
G1 X107.799 Y92.201 E5.51125
G1 X108.923 Y93.517 E5.56644
G1 X109.827 Y94.993 E5.62163
G1 X110.489 Y96.592 E5.67681
G1 X110.893 Y98.275 E5.73200
G1 X111.029 Y100.000 E5.78719
G1 X110.893 Y101.725 E5.84238
G1 X110.489 Y103.408 E5.89756
G1 X109.827 Y105.007 E5.95275
G1 X108.923 Y106.483 E6.00794
G1 X107.799 Y107.799 E6.06313
G1 X106.483 Y108.923 E6.11831
G1 X105.007 Y109.827 E6.17350
G1 X103.408 Y110.489 E6.22869
G1 X101.725 Y110.893 E6.28388
G1 X100.000 Y111.029 E6.33906
G1 X98.275 Y110.893 E6.39425
G1 X96.592 Y110.489 E6.44944
G1 X94.993 Y109.827 E6.50463
G1 X93.517 Y108.923 E6.55981
G1 X92.201 Y107.799 E6.61500
G1 X91.077 Y106.483 E6.67019
G1 X90.173 Y105.007 E6.72538
G1 X89.511 Y103.408 E6.78056
G1 X89.107 Y101.725 E6.83575
G1 X88.971 Y100.000 E6.89094
G1 X89.107 Y98.275 E6.94613
G1 X89.511 Y96.592 E7.00131
G1 X90.173 Y94.993 E7.05650
G1 X91.077 Y93.517 E7.11169
G1 X92.133 Y92.281 E7.16354
G1 X91.762 Y91.762 F7800.000
G1 X93.152 Y90.574 F900.000 E7.22184
G1 X94.711 Y89.619 E7.28014
G1 X96.400 Y88.920 E7.33843
G1 X98.177 Y88.493 E7.39673
G1 X100.000 Y88.349 E7.45503
G1 X101.823 Y88.493 E7.51332
G1 X103.600 Y88.920 E7.57162
G1 X105.289 Y89.619 E7.62992
G1 X106.848 Y90.574 E7.68821
G1 X108.238 Y91.762 E7.74651
G1 X109.426 Y93.152 E7.80481
G1 X110.381 Y94.711 E7.86311
G1 X111.080 Y96.400 E7.92140
G1 X111.507 Y98.177 E7.97970
G1 X111.651 Y100.000 E8.03800
G1 X111.507 Y101.823 E8.09629
G1 X111.080 Y103.600 E8.15459
G1 X110.381 Y105.289 E8.21289
G1 X109.426 Y106.848 E8.27118
G1 X108.238 Y108.238 E8.32948
G1 X106.848 Y109.426 E8.38778
G1 X105.289 Y110.381 E8.44607
G1 X103.600 Y111.080 E8.50437
G1 X101.823 Y111.507 E8.56267
G1 X100.000 Y111.651 E8.62096
G1 X98.177 Y111.507 E8.67926
G1 X96.400 Y111.080 E8.73756
G1 X94.711 Y110.381 E8.79585
G1 X93.152 Y109.426 E8.85415
G1 X91.762 Y108.238 E8.91245
G1 X90.574 Y106.848 E8.97074
G1 X89.619 Y105.289 E9.02904
G1 X88.920 Y103.600 E9.08734
G1 X88.493 Y101.823 E9.14563
G1 X88.349 Y100.000 E9.20393
G1 X88.493 Y98.177 E9.26223
G1 X88.920 Y96.400 E9.32052
G1 X89.619 Y94.711 E9.37882
G1 X90.574 Y93.152 E9.43712
G1 X91.694 Y91.841 E9.49208
G1 F1800.000 E8.49208
G92 E0
G1 Z0.600 F7800.000
G1 X92.771 Y93.684
G1 F1800.000 E1.00000
G1 X94.015 Y92.495 F3000.000 E1.05488
G1 X95.451 Y91.547 E1.10976
G1 X97.034 Y90.870 E1.16464
G1 X98.711 Y90.487 E1.21952
G1 X100.431 Y90.410 E1.27440
G1 X102.136 Y90.641 E1.32928
G1 X103.773 Y91.173 E1.38416
G1 X105.288 Y91.988 E1.43904
G1 X106.634 Y93.061 E1.49392
G1 X107.766 Y94.357 E1.54880
G1 X108.649 Y95.835 E1.60368
G1 X109.254 Y97.446 E1.65856
G1 X109.561 Y99.139 E1.71344
G1 X109.561 Y100.861 E1.76832
G1 X109.254 Y102.554 E1.82320
G1 X108.649 Y104.165 E1.87808
G1 X107.766 Y105.643 E1.93296
G1 X106.634 Y106.939 E1.98784
G1 X105.288 Y108.012 E2.04272
G1 X103.773 Y108.827 E2.09760
G1 X102.136 Y109.359 E2.15248
G1 X100.431 Y109.590 E2.20736
G1 X98.711 Y109.513 E2.26224
G1 X97.034 Y109.130 E2.31712
G1 X95.451 Y108.454 E2.37200
G1 X94.015 Y107.505 E2.42688
G1 X92.771 Y106.316 E2.48176
G1 X91.759 Y104.924 E2.53664
G1 X91.012 Y103.373 E2.59152
G1 X90.555 Y101.714 E2.64640
G1 X90.400 Y100.000 E2.70128
G1 X90.555 Y98.286 E2.75616
G1 X91.012 Y96.627 E2.81104
G1 X91.759 Y95.076 E2.86592
G1 X92.709 Y93.769 E2.91746
G1 X92.302 Y93.275 F7800.000
G1 X93.627 Y92.008 F3000.000 E2.97590
G1 X95.156 Y90.999 E3.03433
G1 X96.841 Y90.279 E3.09277
G1 X98.628 Y89.871 E3.15121
G1 X100.459 Y89.789 E3.20964
G1 X102.275 Y90.035 E3.26808
G1 X104.017 Y90.601 E3.32651
G1 X105.631 Y91.469 E3.38495
G1 X107.064 Y92.612 E3.44338
G1 X108.270 Y93.992 E3.50182
G1 X109.209 Y95.565 E3.56026
G1 X109.853 Y97.281 E3.61869
G1 X110.181 Y99.084 E3.67713
G1 X110.181 Y100.916 E3.73556
G1 X109.853 Y102.719 E3.79400
G1 X109.209 Y104.435 E3.85243
G1 X108.270 Y106.008 E3.91087
G1 X107.064 Y107.388 E3.96931
G1 X105.631 Y108.531 E4.02774
G1 X104.017 Y109.399 E4.08618
G1 X102.275 Y109.965 E4.14461
G1 X100.459 Y110.211 E4.20305
G1 X98.628 Y110.129 E4.26148
G1 X96.841 Y109.721 E4.31992
G1 X95.156 Y109.001 E4.37835
G1 X93.627 Y107.992 E4.43679
G1 X92.302 Y106.725 E4.49522
G1 X91.225 Y105.243 E4.55366
G1 X90.430 Y103.592 E4.61210
G1 X89.943 Y101.825 E4.67053
G1 X89.778 Y100.000 E4.72897
G1 X89.943 Y98.175 E4.78740
G1 X90.430 Y96.408 E4.84584
G1 X91.225 Y94.757 E4.90427
G1 X92.241 Y93.359 E4.95938
G1 X92.201 Y92.201 F7800.000
G1 X93.517 Y91.077 F3000.000 E5.01456
G1 X94.993 Y90.173 E5.06975
G1 X96.592 Y89.511 E5.12494
G1 X98.275 Y89.107 E5.18013
G1 X100.000 Y88.971 E5.23531
G1 X101.725 Y89.107 E5.29050
G1 X103.408 Y89.511 E5.34569
G1 X105.007 Y90.173 E5.40088
G1 X106.483 Y91.077 E5.45606
G1 X107.799 Y92.201 E5.51125
G1 X108.923 Y93.517 E5.56644
G1 X109.827 Y94.993 E5.62163
G1 X110.489 Y96.592 E5.67681
G1 X110.893 Y98.275 E5.73200
G1 X111.029 Y100.000 E5.78719
G1 X110.893 Y101.725 E5.84238
G1 X110.489 Y103.408 E5.89756
G1 X109.827 Y105.007 E5.95275
G1 X108.923 Y106.483 E6.00794
G1 X107.799 Y107.799 E6.06313
G1 X106.483 Y108.923 E6.11831
G1 X105.007 Y109.827 E6.17350
G1 X103.408 Y110.489 E6.22869
G1 X101.725 Y110.893 E6.28388
G1 X100.000 Y111.029 E6.33906
G1 X98.275 Y110.893 E6.39425
G1 X96.592 Y110.489 E6.44944
G1 X94.993 Y109.827 E6.50463
G1 X93.517 Y108.923 E6.55981
G1 X92.201 Y107.799 E6.61500
G1 X91.077 Y106.483 E6.67019
G1 X90.173 Y105.007 E6.72538
G1 X89.511 Y103.408 E6.78056
G1 X89.107 Y101.725 E6.83575
G1 X88.971 Y100.000 E6.89094
G1 X89.107 Y98.275 E6.94613
G1 X89.511 Y96.592 E7.00131
G1 X90.173 Y94.993 E7.05650
G1 X91.077 Y93.517 E7.11169
G1 X92.133 Y92.281 E7.16354
G1 X91.762 Y91.762 F7800.000
G1 X93.152 Y90.574 F3000.000 E7.22184
G1 X94.711 Y89.619 E7.28014
G1 X96.400 Y88.920 E7.33843
G1 X98.177 Y88.493 E7.39673
G1 X100.000 Y88.349 E7.45503
G1 X101.823 Y88.493 E7.51332
G1 X103.600 Y88.920 E7.57162
G1 X105.289 Y89.619 E7.62992
G1 X106.848 Y90.574 E7.68821
G1 X108.238 Y91.762 E7.74651
G1 X109.426 Y93.152 E7.80481
G1 X110.381 Y94.711 E7.86311
G1 X111.080 Y96.400 E7.92140
G1 X111.507 Y98.177 E7.97970
G1 X111.651 Y100.000 E8.03800
G1 X111.507 Y101.823 E8.09629
G1 X111.080 Y103.600 E8.15459
G1 X110.381 Y105.289 E8.21289
G1 X109.426 Y106.848 E8.27118
G1 X108.238 Y108.238 E8.32948
G1 X106.848 Y109.426 E8.38778
G1 X105.289 Y110.381 E8.44607
G1 X103.600 Y111.080 E8.50437
G1 X101.823 Y111.507 E8.56267
G1 X100.000 Y111.651 E8.62096
G1 X98.177 Y111.507 E8.67926
G1 X96.400 Y111.080 E8.73756
G1 X94.711 Y110.381 E8.79585
G1 X93.152 Y109.426 E8.85415
G1 X91.762 Y108.238 E8.91245
G1 X90.574 Y106.848 E8.97074
G1 X89.619 Y105.289 E9.02904
G1 X88.920 Y103.600 E9.08734
G1 X88.493 Y101.823 E9.14563
G1 X88.349 Y100.000 E9.20393
G1 X88.493 Y98.177 E9.26223
G1 X88.920 Y96.400 E9.32052
G1 X89.619 Y94.711 E9.37882
G1 X90.574 Y93.152 E9.43712
G1 X91.694 Y91.841 E9.49208
G1 F1800.000 E8.49208
G92 E0
G1 Z0.900 F7800.000
G1 X92.771 Y93.684
G1 F1800.000 E1.00000
G1 X94.015 Y92.495 F3000.000 E1.05488
G1 X95.451 Y91.547 E1.10976
G1 X97.034 Y90.870 E1.16464
G1 X98.711 Y90.487 E1.21952
G1 X100.431 Y90.410 E1.27440
G1 X102.136 Y90.641 E1.32928
G1 X103.773 Y91.173 E1.38416
G1 X105.288 Y91.988 E1.43904
G1 X106.634 Y93.061 E1.49392
G1 X107.766 Y94.357 E1.54880
G1 X108.649 Y95.835 E1.60368
G1 X109.254 Y97.446 E1.65856
G1 X109.561 Y99.139 E1.71344
G1 X109.561 Y100.861 E1.76832
G1 X109.254 Y102.554 E1.82320
G1 X108.649 Y104.165 E1.87808
G1 X107.766 Y105.643 E1.93296
G1 X106.634 Y106.939 E1.98784
G1 X105.288 Y108.012 E2.04272
G1 X103.773 Y108.827 E2.09760
G1 X102.136 Y109.359 E2.15248
G1 X100.431 Y109.590 E2.20736
G1 X98.711 Y109.513 E2.26224
G1 X97.034 Y109.130 E2.31712
G1 X95.451 Y108.454 E2.37200
G1 X94.015 Y107.505 E2.42688
G1 X92.771 Y106.316 E2.48176
G1 X91.759 Y104.924 E2.53664
G1 X91.012 Y103.373 E2.59152
G1 X90.555 Y101.714 E2.64640
G1 X90.400 Y100.000 E2.70128
G1 X90.555 Y98.286 E2.75616
G1 X91.012 Y96.627 E2.81104
G1 X91.759 Y95.076 E2.86592
G1 X92.709 Y93.769 E2.91746
G1 X92.302 Y93.275 F7800.000
G1 X93.627 Y92.008 F3000.000 E2.97590
G1 X95.156 Y90.999 E3.03433
G1 X96.841 Y90.279 E3.09277
G1 X98.628 Y89.871 E3.15121
G1 X100.459 Y89.789 E3.20964
G1 X102.275 Y90.035 E3.26808
G1 X104.017 Y90.601 E3.32651
G1 X105.631 Y91.469 E3.38495
G1 X107.064 Y92.612 E3.44338
G1 X108.270 Y93.992 E3.50182
G1 X109.209 Y95.565 E3.56026
G1 X109.853 Y97.281 E3.61869
