; generated by Slic3r 0.7.2b on 2012-11-18 at 20:35:15

; layer_height = .3
; perimeters = 5
; solid_layers = 5
; fill_density = .2
; nozzle_diameter = 0.5
; filament_diameter = 2.8
; extrusion_multiplier = 1
; perimeter_speed = 40
; infill_speed = 50
; travel_speed = 90
; extrusion_width_ratio = 0
; scale = 1
; single wall width = 0.70mm

M190 S100 ; set bed temperature
M104 S230 ; set temperature
G28 ; home all axes
M109 S230 ; wait for temperature to be reached
G90 ; use absolute coordinates
G21 ; set units to millimeters
G92 E0 ; reset extrusion distance
M82 ; use absolute distances for extrusion
G1 Z0.450 F5400.000
G1 X99.580 Y121.482
G1 F900.000 E1.00000
G1 X99.730 Y121.382 F1200.000 E1.00862
G1 X100.060 Y121.212 E1.02638
G1 X100.410 Y121.072 E1.04441
G1 X100.590 Y121.022 E1.05335
G1 X100.780 Y120.982 E1.06263
G1 X101.330 Y120.932 E1.08905
G1 X158.980 Y120.802 E3.84655
G1 X198.850 Y120.942 E5.75361
G1 X199.400 Y121.022 E5.78019
G1 X199.760 Y121.142 E5.79834
G1 X200.100 Y121.292 E5.81612
G1 X200.260 Y121.382 E5.82490
G1 X200.410 Y121.482 E5.83352
G1 X200.710 Y121.722 E5.85190
G1 X200.840 Y121.842 E5.86036
G1 X201.090 Y122.122 E5.87831
G1 X201.200 Y122.272 E5.88721
G1 X201.480 Y122.762 E5.91421
G1 X201.550 Y122.932 E5.92300
G1 X201.660 Y123.292 E5.94101
G1 X201.700 Y123.472 E5.94982
G1 X201.740 Y123.842 E5.96763
G1 X201.750 Y124.032 E5.97673
G1 X201.750 Y175.332 E8.43049
G1 X201.730 Y175.702 E8.44821
G1 X201.700 Y175.882 E8.45694
G1 X201.610 Y176.242 E8.47469
G1 X201.480 Y176.582 E8.49210
G1 X201.400 Y176.752 E8.50109
G1 X201.110 Y177.222 E8.52750
G1 X200.860 Y177.502 E8.54546
G1 X200.590 Y177.742 E8.56274
G1 X200.290 Y177.962 E8.58053
G1 X199.800 Y178.212 E8.60684
G1 X199.450 Y178.322 E8.62439
G1 X199.090 Y178.402 E8.64203
G1 X198.720 Y178.432 E8.65979
G1 X165.070 Y179.182 E10.26972
G1 X101.110 Y178.422 E13.32925
G1 X100.740 Y178.372 E13.34711
G1 X100.380 Y178.282 E13.36486
G1 X99.870 Y178.062 E13.39142
G1 X99.710 Y177.972 E13.40020
G1 X99.410 Y177.752 E13.41800
G1 X99.130 Y177.502 E13.43595
G1 X98.890 Y177.232 E13.45323
G1 X98.780 Y177.082 E13.46213
G1 X98.590 Y176.762 E13.47993
G1 X98.440 Y176.422 E13.49771
G1 X98.330 Y176.062 E13.51571
G1 X98.290 Y175.882 E13.52453
G1 X98.260 Y175.702 E13.53326
G1 X98.240 Y175.332 E13.55098
G1 X98.240 Y124.032 E16.00474
G1 X98.250 Y123.842 E16.01385
G1 X98.290 Y123.472 E16.03165
G1 X98.380 Y123.112 E16.04940
G1 X98.440 Y122.932 E16.05847
G1 X98.510 Y122.762 E16.06726
G1 X98.690 Y122.432 E16.08524
G1 X98.790 Y122.272 E16.09427
G1 X98.900 Y122.122 E16.10317
G1 X99.150 Y121.842 E16.12112
G1 X99.280 Y121.712 E16.12991
G1 X99.496 Y121.544 E16.14300
G1 X99.770 Y122.112 F5400.000
G1 X100.050 Y121.912 F1200.000 E16.15946
G1 X100.200 Y121.832 E16.16759
G1 X100.350 Y121.762 E16.17551
G1 X100.510 Y121.702 E16.18368
G1 X100.830 Y121.602 E16.19972
G1 X101.170 Y121.562 E16.21609
G1 X101.330 Y121.552 E16.22376
G1 X158.980 Y121.422 E18.98126
G1 X198.660 Y121.552 E20.87923
G1 X198.830 Y121.562 E20.88737
G1 X199.160 Y121.612 E20.90334
G1 X199.490 Y121.702 E20.91970
G1 X199.640 Y121.762 E20.92743
G1 X199.790 Y121.832 E20.93534
G1 X200.080 Y122.012 E20.95167
G1 X200.220 Y122.112 E20.95990
G1 X200.460 Y122.342 E20.97580
G1 X200.680 Y122.602 E20.99209
G1 X200.770 Y122.742 E21.00005
G1 X200.850 Y122.892 E21.00818
G1 X200.990 Y123.202 E21.02445
G1 X201.040 Y123.362 E21.03247
G1 X201.080 Y123.532 E21.04082
G1 X201.120 Y123.862 E21.05672
G1 X201.130 Y124.032 E21.06487
G1 X201.130 Y175.332 E23.51863
G1 X201.110 Y175.662 E23.53445
G1 X201.080 Y175.832 E23.54270
G1 X201.040 Y175.992 E23.55059
G1 X200.990 Y176.152 E23.55861
G1 X200.860 Y176.462 E23.57469
G1 X200.690 Y176.742 E23.59036
G1 X200.590 Y176.882 E23.59859
G1 X200.360 Y177.122 E23.61449
G1 X200.240 Y177.232 E23.62227
G1 X199.970 Y177.432 E23.63834
G1 X199.670 Y177.592 E23.65461
G1 X199.520 Y177.652 E23.66233
G1 X199.200 Y177.752 E23.67837
G1 X199.040 Y177.782 E23.68616
G1 X198.870 Y177.802 E23.69434
G1 X165.060 Y178.562 E25.31194
G1 X101.140 Y177.802 E28.36955
G1 X100.970 Y177.782 E28.37774
G1 X100.640 Y177.712 E28.39388
G1 X100.480 Y177.662 E28.40190
G1 X100.180 Y177.522 E28.41773
G1 X99.890 Y177.342 E28.43406
G1 X99.760 Y177.242 E28.44190
G1 X99.520 Y177.012 E28.45780
G1 X99.310 Y176.752 E28.47379
G1 X99.130 Y176.462 E28.49011
G1 X99.060 Y176.312 E28.49803
G1 X99.000 Y176.152 E28.50620
G1 X98.950 Y175.992 E28.51422
G1 X98.910 Y175.832 E28.52211
G1 X98.880 Y175.662 E28.53037
G1 X98.860 Y175.332 E28.54618
G1 X98.860 Y124.032 E30.99994
G1 X98.870 Y123.862 E31.00809
G1 X98.910 Y123.532 E31.02399
G1 X98.950 Y123.362 E31.03234
G1 X99.000 Y123.202 E31.04036
G1 X99.140 Y122.892 E31.05663
G1 X99.220 Y122.742 E31.06476
G1 X99.310 Y122.602 E31.07272
G1 X99.530 Y122.342 E31.08901
G1 X99.693 Y122.183 E31.09992
G1 X100.130 Y122.622 F5400.000
G1 X100.250 Y122.532 F1200.000 E31.10709
G1 X100.370 Y122.452 E31.11399
G1 X100.490 Y122.382 E31.12063
G1 X100.630 Y122.312 E31.12812
G1 X100.760 Y122.262 E31.13478
G1 X100.900 Y122.222 E31.14175
G1 X101.190 Y122.182 E31.15575
G1 X101.340 Y122.172 E31.16294
G1 X158.990 Y122.042 E33.92044
G1 X198.660 Y122.172 E35.81793
G1 X198.800 Y122.182 E35.82465
G1 X199.090 Y122.222 E35.83865
G1 X199.230 Y122.262 E35.84561
G1 X199.370 Y122.312 E35.85272
G1 X199.750 Y122.532 E35.87373
G1 X199.970 Y122.722 E35.88763
G1 X200.240 Y123.062 E35.90840
G1 X200.310 Y123.192 E35.91546
G1 X200.370 Y123.322 E35.92231
G1 X200.420 Y123.462 E35.92942
G1 X200.460 Y123.602 E35.93638
G1 X200.490 Y123.742 E35.94323
G1 X200.510 Y124.032 E35.95714
G1 X200.510 Y175.332 E38.41090
G1 X200.490 Y175.622 E38.42480
G1 X200.460 Y175.762 E38.43165
G1 X200.420 Y175.902 E38.43862
G1 X200.370 Y176.032 E38.44528
G1 X200.310 Y176.162 E38.45213
G1 X200.240 Y176.292 E38.45919
G1 X200.080 Y176.522 E38.47259
G1 X199.980 Y176.632 E38.47970
G1 X199.760 Y176.822 E38.49360
G1 X199.640 Y176.902 E38.50050
G1 X199.520 Y176.972 E38.50715
G1 X199.260 Y177.092 E38.52084
G1 X199.120 Y177.132 E38.52781
G1 X198.980 Y177.162 E38.53466
G1 X198.830 Y177.182 E38.54190
G1 X165.040 Y177.942 E40.15854
G1 X101.310 Y177.192 E43.20706
G1 X101.170 Y177.182 E43.21377
G1 X101.030 Y177.162 E43.22053
G1 X100.880 Y177.132 E43.22785
G1 X100.610 Y177.042 E43.24146
G1 X100.480 Y176.982 E43.24831
G1 X100.350 Y176.912 E43.25538
G1 X100.120 Y176.732 E43.26934
G1 X99.920 Y176.532 E43.28287
G1 X99.830 Y176.412 E43.29005
G1 X99.750 Y176.292 E43.29695
G1 X99.680 Y176.172 E43.30359
G1 X99.570 Y175.902 E43.31754
G1 X99.530 Y175.762 E43.32450
G1 X99.500 Y175.622 E43.33135
G1 X99.480 Y175.332 E43.34525
G1 X99.480 Y124.032 E45.79902
G1 X99.500 Y123.742 E45.81292
G1 X99.530 Y123.602 E45.81977
G1 X99.570 Y123.462 E45.82673
G1 X99.620 Y123.322 E45.83384
G1 X99.680 Y123.192 E45.84069
G1 X99.750 Y123.062 E45.84776
G1 X99.930 Y122.822 E45.86210
G1 X100.020 Y122.722 E45.86854
G1 X100.053 Y122.692 E45.87065
G1 X100.460 Y123.152 F5400.000
G1 X100.550 Y123.072 F1200.000 E45.87641
G1 X100.650 Y123.002 E45.88225
G1 X100.750 Y122.942 E45.88783
G1 X100.860 Y122.892 E45.89361
G1 X100.980 Y122.852 E45.89966
G1 X101.100 Y122.822 E45.90557
G1 X101.220 Y122.802 E45.91139
G1 X101.340 Y122.792 E45.91715
G1 X158.990 Y122.662 E48.67465
G1 X198.650 Y122.792 E50.57167
G1 X198.780 Y122.802 E50.57790
G1 X198.900 Y122.822 E50.58372
G1 X199.010 Y122.852 E50.58918
G1 X199.130 Y122.892 E50.59523
G1 X199.240 Y122.942 E50.60101
G1 X199.340 Y123.002 E50.60658
G1 X199.440 Y123.072 E50.61242
G1 X199.530 Y123.162 E50.61851
G1 X199.610 Y123.252 E50.62427
G1 X199.680 Y123.342 E50.62972
G1 X199.800 Y123.562 E50.64171
G1 X199.840 Y123.672 E50.64731
G1 X199.870 Y123.792 E50.65322
G1 X199.890 Y124.032 E50.66474
G1 X199.890 Y175.332 E53.11851
G1 X199.870 Y175.572 E53.13003
G1 X199.840 Y175.682 E53.13548
G1 X199.800 Y175.802 E53.14153
G1 X199.750 Y175.912 E53.14731
G1 X199.690 Y176.012 E53.15289
G1 X199.620 Y176.112 E53.15873
G1 X199.540 Y176.202 E53.16449
G1 X199.450 Y176.282 E53.17025
G1 X199.350 Y176.352 E53.17608
G1 X199.140 Y176.472 E53.18765
G1 X199.030 Y176.512 E53.19325
G1 X198.920 Y176.542 E53.19871
G1 X198.800 Y176.562 E53.20452
G1 X198.680 Y176.572 E53.21028
G1 X165.030 Y177.322 E54.82022
G1 X101.320 Y176.572 E57.86778
G1 X101.200 Y176.562 E57.87354
G1 X101.080 Y176.542 E57.87936
G1 X100.970 Y176.512 E57.88482
G1 X100.850 Y176.472 E57.89087
G1 X100.750 Y176.422 E57.89621
G1 X100.640 Y176.352 E57.90245
G1 X100.550 Y176.282 E57.90790
G1 X100.460 Y176.202 E57.91366
G1 X100.380 Y176.112 E57.91942
G1 X100.240 Y175.912 E57.93110
G1 X100.190 Y175.802 E57.93688
G1 X100.150 Y175.692 E57.94248
G1 X100.120 Y175.572 E57.94839
G1 X100.100 Y175.332 E57.95991
G1 X100.100 Y124.032 E60.41368
G1 X100.120 Y123.792 E60.42520
G1 X100.150 Y123.672 E60.43111
G1 X100.250 Y123.452 E60.44267
G1 X100.310 Y123.342 E60.44866
G1 X100.380 Y123.242 E60.45450
G1 X100.391 Y123.230 E60.45526
G1 X100.870 Y123.622 F5400.000
G1 X100.930 Y123.562 F1200.000 E60.45932
G1 X101.000 Y123.512 E60.46344
G1 X101.080 Y123.472 E60.46772
G1 X101.160 Y123.442 E60.47180
G1 X101.250 Y123.422 E60.47621
G1 X101.340 Y123.412 E60.48054
G1 X158.990 Y123.282 E63.23804
G1 X198.650 Y123.412 E65.13506
G1 X198.740 Y123.422 E65.13939
G1 X198.830 Y123.442 E65.14380
G1 X198.910 Y123.472 E65.14788
G1 X198.990 Y123.512 E65.15216
G1 X199.060 Y123.562 E65.15628
G1 X199.120 Y123.632 E65.16069
G1 X199.170 Y123.702 E65.16480
G1 X199.210 Y123.772 E65.16866
G1 X199.240 Y123.862 E65.17320
G1 X199.260 Y123.942 E65.17714
G1 X199.270 Y124.032 E65.18147
G1 X199.270 Y175.332 E67.63523
G1 X199.250 Y175.502 E67.64342
G1 X199.220 Y175.582 E67.64751
G1 X199.170 Y175.662 E67.65202
G1 X199.120 Y175.732 E67.65614
G1 X199.060 Y175.792 E67.66019
G1 X198.990 Y175.852 E67.66460
G1 X198.920 Y175.892 E67.66846
G1 X198.840 Y175.922 E67.67255
G1 X198.750 Y175.942 E67.67696
G1 X198.660 Y175.952 E67.68129
G1 X165.010 Y176.702 E69.29122
G1 X101.330 Y175.952 E72.33735
G1 X101.240 Y175.942 E72.34168
G1 X101.160 Y175.922 E72.34563
G1 X101.080 Y175.892 E72.34971
G1 X101.000 Y175.852 E72.35399
G1 X100.930 Y175.792 E72.35840
G1 X100.870 Y175.732 E72.36246
G1 X100.820 Y175.662 E72.36658
G1 X100.780 Y175.592 E72.37043
G1 X100.750 Y175.502 E72.37497
G1 X100.730 Y175.422 E72.37891
G1 X100.720 Y175.332 E72.38325
G1 X100.720 Y124.032 E74.83701
G1 X100.730 Y123.942 E74.84134
G1 X100.750 Y123.862 E74.84528
G1 X100.780 Y123.772 E74.84982
G1 X100.815 Y123.711 E74.85319
G1 X101.340 Y124.032 F5400.000
G1 X158.990 Y123.902 F1200.000 E77.61069
G1 X198.650 Y124.032 E79.50771
G1 X198.650 Y175.332 E81.96147
G1 X165.000 Y176.082 E83.57140
G1 X101.340 Y175.332 E86.61658
G1 X101.340 Y124.137 E89.06534
G1 F900.000 E88.06534
G92 E0
G1 X154.903 Y158.590 F5400.000
G1 F900.000 E1.00000
G1 X163.099 Y158.590 F1200.000 E1.39204
G1 X167.198 Y165.688 E1.78411
G1 X163.099 Y172.786 E2.17618
G1 X154.903 Y172.786 E2.56822
G1 X150.804 Y165.688 E2.96029
G1 X154.851 Y158.680 E3.34737
G1 X154.545 Y157.970 F5400.000
G1 X163.457 Y157.970 F1200.000 E3.77362
G1 X167.914 Y165.688 E4.19991
G1 X163.457 Y173.406 E4.62619
G1 X154.545 Y173.406 E5.05244
G1 X150.088 Y165.688 E5.47873
G1 X154.493 Y158.061 E5.90002
G1 X154.188 Y157.351 F5400.000
G1 X163.814 Y157.351 F1200.000 E6.36048
G1 X168.629 Y165.688 E6.82098
G1 X163.814 Y174.025 E7.28149
G1 X154.188 Y174.025 E7.74194
G1 X149.373 Y165.688 E8.20245
G1 X154.135 Y157.441 E8.65795
G1 F900.000 E7.65795
G92 E0
G1 X157.847 Y144.209 F5400.000
G1 F900.000 E1.00000
G1 X156.344 Y143.867 F1200.000 E1.07374
G1 X154.926 Y143.260 E1.14750
G1 X153.640 Y142.412 E1.22120
G1 X152.525 Y141.346 E1.29498
G1 X151.618 Y140.097 E1.36881
G1 X150.951 Y138.709 E1.44249
G1 X150.540 Y137.222 E1.51625
G1 X150.402 Y135.688 E1.58993
G1 X150.540 Y134.152 E1.66372
G1 X150.951 Y132.665 E1.73748
G1 X151.618 Y131.277 E1.81116
G1 X152.525 Y130.030 E1.88491
G1 X153.640 Y128.963 E1.95875
G1 X154.926 Y128.114 E2.03246
G1 X156.344 Y127.507 E2.10622
G1 X157.847 Y127.165 E2.17996
G1 X159.388 Y127.097 E2.25371
G1 X160.914 Y127.303 E2.32736
G1 X162.381 Y127.778 E2.40116
G1 X163.739 Y128.510 E2.47492
G1 X164.944 Y129.471 E2.54864
G1 X165.959 Y130.632 E2.62242
G1 X166.749 Y131.956 E2.69616
G1 X167.291 Y133.399 E2.76988
G1 X167.566 Y134.917 E2.84366
G1 X167.566 Y136.457 E2.91735
G1 X167.291 Y137.975 E2.99113
G1 X166.749 Y139.418 E3.06485
G1 X165.959 Y140.742 E3.13859
G1 X164.944 Y141.903 E3.21237
G1 X163.739 Y142.864 E3.28609
G1 X162.381 Y143.596 E3.35985
G1 X160.914 Y144.071 E3.43364
G1 X159.388 Y144.277 E3.50730
G1 X157.952 Y144.213 E3.57605
G1 X157.764 Y144.825 F5400.000
G1 X156.152 Y144.458 F1200.000 E3.65514
G1 X154.631 Y143.808 E3.73424
G1 X153.252 Y142.898 E3.81326
G1 X152.056 Y141.755 E3.89238
G1 X151.084 Y140.416 E3.97156
G1 X150.368 Y138.927 E4.05057
G1 X149.928 Y137.333 E4.12965
G1 X149.780 Y135.688 E4.20867
G1 X149.928 Y134.041 E4.28779
G1 X150.368 Y132.447 E4.36687
G1 X151.084 Y130.958 E4.44590
G1 X152.056 Y129.621 E4.52498
G1 X153.252 Y128.476 E4.60415
G1 X154.631 Y127.566 E4.68319
G1 X156.152 Y126.916 E4.76229
G1 X157.764 Y126.549 E4.84138
G1 X159.416 Y126.475 E4.92045
G1 X161.052 Y126.697 E4.99942
G1 X162.626 Y127.206 E5.07857
G1 X164.082 Y127.991 E5.15768
G1 X165.373 Y129.022 E5.23671
G1 X166.462 Y130.267 E5.31583
G1 X167.309 Y131.686 E5.39490
G1 X167.891 Y133.233 E5.47395
G1 X168.186 Y134.861 E5.55307
G1 X168.186 Y136.513 E5.63209
G1 X167.891 Y138.141 E5.71121
G1 X167.309 Y139.688 E5.79025
G1 X166.462 Y141.107 E5.86933
G1 X165.373 Y142.352 E5.94845
G1 X164.082 Y143.383 E6.02748
G1 X162.626 Y144.168 E6.10659
G1 X161.052 Y144.677 E6.18574
G1 X159.416 Y144.899 E6.26470
G1 X157.868 Y144.830 E6.33878
G1 X157.681 Y145.441 F5400.000
G1 X155.960 Y145.050 F1200.000 E6.42321
G1 X154.337 Y144.355 E6.50765
G1 X152.865 Y143.384 E6.59199
G1 X151.588 Y142.165 E6.67645
G1 X150.549 Y140.735 E6.76099
G1 X149.786 Y139.146 E6.84532
G1 X149.316 Y137.445 E6.92973
G1 X149.158 Y135.688 E7.01408
G1 X149.316 Y133.930 E7.09853
G1 X149.786 Y132.228 E7.18294
G1 X150.550 Y130.639 E7.26730
G1 X151.588 Y129.211 E7.35173
G1 X152.864 Y127.990 E7.43622
G1 X154.337 Y127.019 E7.52060
G1 X155.960 Y126.324 E7.60504
G1 X157.681 Y125.933 E7.68947
G1 X159.444 Y125.854 E7.77386
G1 X161.190 Y126.090 E7.85815
G1 X162.870 Y126.634 E7.94264
G1 X164.425 Y127.472 E8.02710
G1 X165.803 Y128.572 E8.11145
G1 X166.965 Y129.901 E8.19591
G1 X167.870 Y131.417 E8.28032
G1 X168.490 Y133.068 E8.36469
G1 X168.805 Y134.805 E8.44915
G1 X168.805 Y136.569 E8.53350
G1 X168.490 Y138.306 E8.61796
G1 X167.870 Y139.957 E8.70233
G1 X166.965 Y141.473 E8.78674
G1 X165.803 Y142.802 E8.87120
G1 X164.425 Y143.902 E8.95555
G1 X162.870 Y144.740 E9.04000
G1 X161.190 Y145.284 E9.12450
G1 X159.444 Y145.520 E9.20878
G1 X157.785 Y145.446 E9.28818
G1 F900.000 E8.28818
G92 E0
G1 X147.350 Y135.840 F5400.000
G1 F900.000 E1.00000
G1 X147.350 Y158.536 F1200.000 E2.08562
G1 X117.652 Y158.536 E3.50616
G1 X117.652 Y135.840 E4.59178
G1 X147.246 Y135.840 E6.00732
G1 X147.970 Y135.220 F5400.000
G1 X147.970 Y159.156 F1200.000 E7.15220
G1 X117.032 Y159.156 E8.63200
G1 X117.032 Y135.220 E9.77688
G1 X147.865 Y135.220 E11.25168
G1 X148.589 Y134.601 F5400.000
G1 X148.589 Y159.775 F1200.000 E12.45582
G1 X116.413 Y159.775 E13.99488
G1 X116.413 Y134.601 E15.19902
G1 X148.485 Y134.601 E16.73308
G1 X148.187 Y133.362 F5400.000
G1 X115.174 Y133.362 F1200.000 E18.31217
G1 X115.174 Y161.014 E19.63483
G1 X149.828 Y161.014 E21.29241
G1 X149.828 Y141.850 E22.20906
G1 X150.651 Y142.983 E22.27606
G1 X152.090 Y144.357 E22.37120
G1 X153.747 Y145.451 E22.46618
G1 X155.575 Y146.233 E22.56130
G1 X157.515 Y146.674 E22.65642
G1 X159.499 Y146.763 E22.75145
G1 X161.466 Y146.497 E22.84637
G1 X163.359 Y145.884 E22.94156
G1 X165.110 Y144.939 E23.03671
G1 X166.663 Y143.701 E23.13169
G1 X167.972 Y142.204 E23.22683
G1 X168.174 Y141.866 E23.24568
G1 X168.174 Y161.014 E24.16159
G1 X196.174 Y161.014 E25.50088
G1 X196.174 Y172.862 E26.06756
G1 X165.917 Y172.862 E27.51480
G1 X170.060 Y165.688 E27.91104
G1 X164.530 Y156.112 E28.43998
G1 X153.472 Y156.112 E28.96885
G1 X147.942 Y165.688 E29.49779
G1 X152.085 Y172.862 E29.89403
G1 X103.826 Y172.862 E32.20233
G1 X103.826 Y126.514 E34.41921
